svg/blobs-icons/no-decorations/globe.svg

<svg xmlns="http://www.w3.org/2000/svg" xmlns:xlink="http://www.w3.org/1999/xlink" preserveAspectRatio="xMidYMid" width="216" height="213" viewBox="0 0 216 213"><defs><style>.cls-3{fill:#2476ff}.cls-4{fill:#fff}.cls-6{fill:#000;opacity:.35}</style></defs><g id="group-86svg"><path d="M215.541 106.288c0 58.695-48.25 106.277-107.77 106.277-59.52.0-107.77-47.582-107.77-106.277C.001 47.593 48.251.012 107.771.012s107.77 47.581 107.77 106.276z" id="path-1" class="cls-3" fill-rule="evenodd"/><path d="M172.665 21.446C170.384 19.746 168.023 18.151 165.607 16.633c1.09 6.875 4.244 15.162 4.244 15.162S167.368 42.224 168.361 47.19C169.354 52.156 181.77 41.727 169.851 50.667 157.932 59.606 150.978 51.164 159.918 60.102 168.857 69.041 169.851 50.667 167.864 74.504 165.877 98.342 162.898 102.316 156.938 108.275 150.978 114.234 147.005 128.139 151.971 138.071 156.938 148.004 167.864 157.936 167.864 157.936S162.438 193.242 168.871 193.822C170.299 192.851 171.701 191.848 173.077 190.812 181.144 180.324 192.446 146.142 197.663 143.534 199.243 142.744 203.016 143.974 207.668 146.166 212.729 133.848 215.541 120.395 215.541 106.288 215.541 99.968 214.95 93.788 213.877 87.771L213.306 88.409C202.791 81.738 189.162 58.994 172.665 21.446z" id="path-2" class="cls-4" fill-rule="evenodd"/><path d="M13.892 54.115C19.209 54.863 24.336 55.012 24.336 55.012c-3.725.744 3.725 25.328 3.725 25.328-6.773 8.084-8.281 16.03-4.47 23.836-7.2 6.581 8.94 11.548 8.94 11.548.745000000000005 1.118-4.47 19.74-4.47 19.74-3.725 10.802 26.446 46.187 26.446 46.187C53.762 153.342 68.661 119.449 68.661 119.449 72.386 118.331 73.876 98.963 73.876 98.963 73.876 93.747 57.487 96.355 57.487 96.355c1.86199999999999-2.235.0-2.979.0-2.979C49.665 85.926 37.001 83.692 37.001 83.692c-6.332-13.037-3.352-22.348-3.352-22.348 1.117-7.822 9.684 8.194 9.684 8.194.0 10.802 21.603 11.175 21.603 11.175C54.507 66.186 67.916 52.405 67.916 52.405 68.289 49.425 76.856 51.66 76.856 51.66 76.484 43.093 65.681 44.955 65.681 44.955c-1.489-2.98-15.643 6.705-15.643 6.705C46.313 47.936 64.564 39.369 64.564 39.369 77.228 19.256 39.608 27.822 39.608 27.822 37.652 28.128 35.831 28.451 34.073 28.782c-7.958 7.362-14.777 15.896-20.181 25.333z" id="path-3" class="cls-4" fill-rule="evenodd"/><path d="M107.771.012C105.132.012 102.525.137 99.933.322c55.857 3.964 99.933 49.874 99.933 105.966.0 56.093-44.076 102.003-99.933 105.966C102.525 212.438 105.132 212.565 107.771 212.565c59.52.0 107.77-47.582 107.77-106.277.0-58.695-48.25-106.276-107.77-106.276z" id="path-4" class="cls-6" fill-rule="evenodd"/></g></svg>

<svg xmlns="http://www.w3.org/2000/svg" xmlns:xlink="http://www.w3.org/1999/xlink" preserveAspectRatio="xMidYMid" width="216" height="213" viewBox="0 0 216 213">
  <defs>
    <style>

      .cls-3 {
        fill: #2476ff;
      }

      .cls-4 {
        fill: #ffffff;
      }

      .cls-6 {
        fill: #000000;
        opacity: 0.35;
      }
    </style>
  </defs>
  <g id="group-86svg">
    <path d="M215.541,106.288 C215.541,164.983 167.291,212.565 107.771,212.565 C48.251,212.565 0.001,164.983 0.001,106.288 C0.001,47.593 48.251,0.012 107.771,0.012 C167.291,0.012 215.541,47.593 215.541,106.288 Z" id="path-1" class="cls-3" fill-rule="evenodd"/>
    <path d="M172.665,21.446 C170.384,19.746 168.023,18.151 165.607,16.633 C166.697,23.508 169.851,31.795 169.851,31.795 C169.851,31.795 167.368,42.224 168.361,47.190 C169.354,52.156 181.770,41.727 169.851,50.667 C157.932,59.606 150.978,51.164 159.918,60.102 C168.857,69.041 169.851,50.667 167.864,74.504 C165.877,98.342 162.898,102.316 156.938,108.275 C150.978,114.234 147.005,128.139 151.971,138.071 C156.938,148.004 167.864,157.936 167.864,157.936 C167.864,157.936 162.438,193.242 168.871,193.822 C170.299,192.851 171.701,191.848 173.077,190.812 C181.144,180.324 192.446,146.142 197.663,143.534 C199.243,142.744 203.016,143.974 207.668,146.166 C212.729,133.848 215.541,120.395 215.541,106.288 C215.541,99.968 214.950,93.788 213.877,87.771 C213.877,87.771 213.306,88.409 213.306,88.409 C202.791,81.738 189.162,58.994 172.665,21.446 Z" id="path-2" class="cls-4" fill-rule="evenodd"/>
    <path d="M13.892,54.115 C19.209,54.863 24.336,55.012 24.336,55.012 C20.611,55.756 28.061,80.340 28.061,80.340 C21.288,88.424 19.780,96.370 23.591,104.176 C16.391,110.757 32.531,115.724 32.531,115.724 C33.276,116.842 28.061,135.464 28.061,135.464 C24.336,146.266 54.507,181.651 54.507,181.651 C53.762,153.342 68.661,119.449 68.661,119.449 C72.386,118.331 73.876,98.963 73.876,98.963 C73.876,93.747 57.487,96.355 57.487,96.355 C59.349,94.120 57.487,93.376 57.487,93.376 C49.665,85.926 37.001,83.692 37.001,83.692 C30.669,70.655 33.649,61.344 33.649,61.344 C34.766,53.522 43.333,69.538 43.333,69.538 C43.333,80.340 64.936,80.713 64.936,80.713 C54.507,66.186 67.916,52.405 67.916,52.405 C68.289,49.425 76.856,51.660 76.856,51.660 C76.484,43.093 65.681,44.955 65.681,44.955 C64.192,41.975 50.038,51.660 50.038,51.660 C46.313,47.936 64.564,39.369 64.564,39.369 C77.228,19.256 39.608,27.822 39.608,27.822 C37.652,28.128 35.831,28.451 34.073,28.782 C26.115,36.144 19.296,44.678 13.892,54.115 Z" id="path-3" class="cls-4" fill-rule="evenodd"/>
    <path d="M107.771,0.012 C105.132,0.012 102.525,0.137 99.933,0.322 C155.790,4.286 199.866,50.196 199.866,106.288 C199.866,162.381 155.790,208.291 99.933,212.254 C102.525,212.438 105.132,212.565 107.771,212.565 C167.291,212.565 215.541,164.983 215.541,106.288 C215.541,47.593 167.291,0.012 107.771,0.012 Z" id="path-4" class="cls-6" fill-rule="evenodd"/>
  </g>
</svg>
